svg/floor_lamp_torchiere_variant_outline.svg

<svg xmlns="http://www.w3.org/2000/svg" viewBox="0 0 24 24"><path d="m13.97 4-1.29 3h-1.36l-1.29-3zM17 2H7l3 7h4zm-1.08 20L13 15v7h-2v-7l-2.92 7H5.92l5-12h2.16l5 12z"/></svg>

<svg xmlns="http://www.w3.org/2000/svg" id="mdi-floor-lamp-torchiere-variant-outline" viewBox="0 0 24 24"><path d="M13.97 4L12.68 7H11.32L10.03 4H13.97M17 2H7L10 9H14L17 2M15.92 22L13 15V22H11V15L8.08 22H5.92L10.92 10H13.08L18.08 22H15.92Z" /></svg>
